X:220
T:Three Little Drummers
S:Becky Tracy
Z:robin.beech@mcgill.ca
R:jig
M:6/8
L:1/8
K:G
BAG GDG | GDG ABc | BAG edc | BdB cBA |
BAG GDG | GDG ABc | BAG edB |1 def g2A :|  2 def g2d |:
gdd gdd | gdd dcB | A2c A2c | A2c cBA |
B3 c2c | BAG Adc |  BAG edB |1 def g2d :|2 def g2A |]
